X: 4
T: The Lady On The Island
R: reel
M: 4/4
L: 1/8
K: Dmaj
|:BAFB AFEF | D2FA BAFd | BAFB A3B | defd efdB |
BAFB AFEF | D2 FA BAdB | BAFB AFAB | defd e3f ||
|:d2fd efge | afdf edBA | d2fd efge |afdf e3f|
d2fd efge | afdf edBA |defg a3b | afdf efdB ||


Tune 938	Setting 14127

